img/bell-outline.svg

<svg width="16" height="16" fill="none" viewBox="0 0 16 16" xmlns="http://www.w3.org/2000/svg"><path d="m14.154 10.508-1.104-1.183v-1.759c0-2.199-1.267-4.118-3.196-4.913-0.103-0.928-0.895-1.653-1.854-1.653-0.958 0-1.75 0.724-1.854 1.652-1.929 0.795-3.196 2.715-3.196 4.914v1.758l-1.104 1.184c-0.461 0.494-0.461 1.297 0 1.786 0.232 0.251 0.545 0.389 0.88 0.389h2.887c0 0.0041-0.00107 0.0077-0.0021 0.0112-9.6e-4 0.0033-0.0019 0.0064-0.0019 0.0098-1e-3 1.266 1.082 2.296 2.413 2.296 1.29 0 2.348-0.968 2.412-2.181 3e-3 -0.038 5e-3 -0.076 5e-3 -0.115 0-0.0041-0.0011-0.0077-0.0021-0.0112-1e-3 -0.0033-0.0019-0.0064-0.0019-0.0098h2.841c0.039 0 0.078-4e-3 0.116-0.011 0.152-0.031 0.532-0.13 0.761-0.375 0.462-0.492 0.463-1.295 1e-3 -1.789zm-6.132 3.294c-0.679 0-1.231-0.492-1.231-1.098h2.464c0 0.606-0.552 1.098-1.233 1.098zm-5.318-2.331 10.503 0.014c0.053-0.015 0.107-0.035 0.129-0.048-0.0019-3e-4 -0.0033-0.0076-0.0054-0.0186-0.0045-0.0233-0.0122-0.0629-0.0346-0.0874l-1.266-1.355c-0.103-0.111-0.161-0.259-0.161-0.411v-1.999c0-1.828-1.122-3.403-2.79-3.922-0.287-0.089-0.463-0.383-0.408-0.682 7.4e-4 -0.00416 0.00148-0.00831 0.00223-0.01247 0.00538-0.02986 0.01077-0.05981 0.01077-0.09053 0-0.365-0.307-0.661-0.684-0.661s-0.683 0.296-0.683 0.661c0 0.03252 0.00571 0.06259 0.01124 0.09169 5.9e-4 0.00311 0.00118 0.00622 0.00176 0.00931 0.055 0.299-0.121 0.593-0.407 0.683-1.669 0.518-2.79 2.095-2.79 3.923v1.998c0 0.152-0.058 0.3-0.162 0.411l-1.266 1.356c-0.033 0.036-0.034 0.106-1e-3 0.14z" clip-rule="evenodd" fill="#7F7F7F" fill-rule="evenodd"/><mask id="a" x="1" y="1" width="14" height="14" mask-type="alpha" maskUnits="userSpaceOnUse"><path d="m14.154 10.508-1.104-1.183v-1.759c0-2.199-1.267-4.118-3.196-4.913-0.103-0.928-0.895-1.653-1.854-1.653-0.958 0-1.75 0.724-1.854 1.652-1.929 0.795-3.196 2.715-3.196 4.914v1.758l-1.104 1.184c-0.461 0.494-0.461 1.297 0 1.786 0.232 0.251 0.545 0.389 0.88 0.389h2.887c0 0.0041-0.00107 0.0077-0.0021 0.0112-9.6e-4 0.0033-0.0019 0.0064-0.0019 0.0098-1e-3 1.266 1.082 2.296 2.413 2.296 1.29 0 2.348-0.968 2.412-2.181 3e-3 -0.038 5e-3 -0.076 5e-3 -0.115 0-0.0041-0.0011-0.0077-0.0021-0.0112-1e-3 -0.0033-0.0019-0.0064-0.0019-0.0098h2.841c0.039 0 0.078-4e-3 0.116-0.011 0.152-0.031 0.532-0.13 0.761-0.375 0.462-0.492 0.463-1.295 1e-3 -1.789zm-6.132 3.294c-0.679 0-1.231-0.492-1.231-1.098h2.464c0 0.606-0.552 1.098-1.233 1.098zm-5.318-2.331 10.503 0.014c0.053-0.015 0.107-0.035 0.129-0.048-0.0019-3e-4 -0.0033-0.0076-0.0054-0.0186-0.0045-0.0233-0.0122-0.0629-0.0346-0.0874l-1.266-1.355c-0.103-0.111-0.161-0.259-0.161-0.411v-1.999c0-1.828-1.122-3.403-2.79-3.922-0.287-0.089-0.463-0.383-0.408-0.682 7.4e-4 -0.00416 0.00148-0.00831 0.00223-0.01247 0.00538-0.02986 0.01077-0.05981 0.01077-0.09053 0-0.365-0.307-0.661-0.684-0.661s-0.683 0.296-0.683 0.661c0 0.03252 0.00571 0.06259 0.01124 0.09169 5.9e-4 0.00311 0.00118 0.00622 0.00176 0.00931 0.055 0.299-0.121 0.593-0.407 0.683-1.669 0.518-2.79 2.095-2.79 3.923v1.998c0 0.152-0.058 0.3-0.162 0.411l-1.266 1.356c-0.033 0.036-0.034 0.106-1e-3 0.14z" clip-rule="evenodd" fill="#fff" fill-rule="evenodd"/></mask><g mask="url(#a)"><rect width="16" height="16" fill="#7F7F7F"/></g></svg>

<svg width="16" height="16" viewBox="0 0 16 16" fill="none" xmlns="http://www.w3.org/2000/svg">
<path fill-rule="evenodd" clip-rule="evenodd" d="M14.154 10.508L13.05 9.325V7.566C13.05 5.367 11.783 3.448 9.854 2.653C9.751 1.725 8.959 1 8 1C7.042 1 6.25 1.724 6.146 2.652C4.217 3.447 2.95 5.367 2.95 7.566V9.324L1.846 10.508C1.385 11.002 1.385 11.805 1.846 12.294C2.078 12.545 2.391 12.683 2.726 12.683H5.613C5.613 12.6871 5.61193 12.6907 5.6109 12.6942C5.60994 12.6975 5.609 12.7006 5.609 12.704C5.608 13.97 6.691 15 8.022 15C9.312 15 10.37 14.032 10.434 12.819C10.437 12.781 10.439 12.743 10.439 12.704C10.439 12.6999 10.4379 12.6963 10.4369 12.6928C10.4359 12.6895 10.435 12.6864 10.435 12.683H13.276C13.315 12.683 13.354 12.679 13.392 12.672C13.544 12.641 13.924 12.542 14.153 12.297C14.615 11.805 14.616 11.002 14.154 10.508ZM8.022 13.802C7.343 13.802 6.791 13.31 6.791 12.704H9.255C9.255 13.31 8.703 13.802 8.022 13.802ZM2.704 11.471L13.207 11.485C13.26 11.47 13.314 11.45 13.336 11.437C13.3341 11.4367 13.3327 11.4294 13.3306 11.4184C13.3261 11.3951 13.3184 11.3555 13.296 11.331L12.03 9.976C11.927 9.865 11.869 9.717 11.869 9.565V7.566C11.869 5.738 10.747 4.163 9.079 3.644C8.792 3.555 8.616 3.261 8.671 2.962C8.67174 2.95784 8.67248 2.95369 8.67323 2.94953C8.67861 2.91967 8.684 2.88972 8.684 2.859C8.684 2.494 8.377 2.198 8 2.198C7.623 2.198 7.317 2.494 7.317 2.859C7.317 2.89152 7.32271 2.92159 7.32824 2.95069C7.32883 2.9538 7.32942 2.95691 7.33 2.96C7.385 3.259 7.209 3.553 6.923 3.643C5.254 4.161 4.133 5.738 4.133 7.566V9.564C4.133 9.716 4.075 9.864 3.971 9.975L2.705 11.331C2.672 11.367 2.671 11.437 2.704 11.471Z" fill="#7F7F7F"/>
<mask id="mask0" mask-type="alpha" maskUnits="userSpaceOnUse" x="1" y="1" width="14" height="14">
<path fill-rule="evenodd" clip-rule="evenodd" d="M14.154 10.508L13.05 9.325V7.566C13.05 5.367 11.783 3.448 9.854 2.653C9.751 1.725 8.959 1 8 1C7.042 1 6.25 1.724 6.146 2.652C4.217 3.447 2.95 5.367 2.95 7.566V9.324L1.846 10.508C1.385 11.002 1.385 11.805 1.846 12.294C2.078 12.545 2.391 12.683 2.726 12.683H5.613C5.613 12.6871 5.61193 12.6907 5.6109 12.6942C5.60994 12.6975 5.609 12.7006 5.609 12.704C5.608 13.97 6.691 15 8.022 15C9.312 15 10.37 14.032 10.434 12.819C10.437 12.781 10.439 12.743 10.439 12.704C10.439 12.6999 10.4379 12.6963 10.4369 12.6928C10.4359 12.6895 10.435 12.6864 10.435 12.683H13.276C13.315 12.683 13.354 12.679 13.392 12.672C13.544 12.641 13.924 12.542 14.153 12.297C14.615 11.805 14.616 11.002 14.154 10.508ZM8.022 13.802C7.343 13.802 6.791 13.31 6.791 12.704H9.255C9.255 13.31 8.703 13.802 8.022 13.802ZM2.704 11.471L13.207 11.485C13.26 11.47 13.314 11.45 13.336 11.437C13.3341 11.4367 13.3327 11.4294 13.3306 11.4184C13.3261 11.3951 13.3184 11.3555 13.296 11.331L12.03 9.976C11.927 9.865 11.869 9.717 11.869 9.565V7.566C11.869 5.738 10.747 4.163 9.079 3.644C8.792 3.555 8.616 3.261 8.671 2.962C8.67174 2.95784 8.67248 2.95369 8.67323 2.94953C8.67861 2.91967 8.684 2.88972 8.684 2.859C8.684 2.494 8.377 2.198 8 2.198C7.623 2.198 7.317 2.494 7.317 2.859C7.317 2.89152 7.32271 2.92159 7.32824 2.95069C7.32883 2.9538 7.32942 2.95691 7.33 2.96C7.385 3.259 7.209 3.553 6.923 3.643C5.254 4.161 4.133 5.738 4.133 7.566V9.564C4.133 9.716 4.075 9.864 3.971 9.975L2.705 11.331C2.672 11.367 2.671 11.437 2.704 11.471Z" fill="white"/>
</mask>
<g mask="url(#mask0)">
<rect width="16" height="16" fill="#7F7F7F"/>
</g>
</svg>
